X:1
T:Groß ist der Herr
T:C.P.E. Bach alt. harm. (m.19) by J. Dorian Brown
T:[poet unknown] literal & poetic xlatns. by JDB
T:English Version
T:Great Is the Lord "Groß ist der Herr"
T:Manfred Hößl - mhoessl.de
T:Manfred Hößl - mhoessl.de
T:Manfred Hößl - mhoessl.de
T:Manfred Hößl - mhoessl.de
C:C.P.E. Bach
Z:Manfred Hößl - mhoessl.de
%%score [ 1 ( 2 3 ) ( 4 5 ) ( 6 7 ) ]
L:1/8
Q:1/4=110
M:2/4
K:D
V:1 treble nm="Sopran" snm="S."
V:2 treble nm="Alt" snm="A."
V:3 treble 
V:4 treble-8 nm="Tenor" snm="T."
V:5 treble-8 
V:6 bass nm="Bass" snm="B."
V:7 bass 
V:1
 z2 d2 | d2 D2 | A2 A2 | (AG) (FE) | FF GA | Bc dF | F2 E2 | z2 E2 | (Ac) (ce) | e4- | ec AG | %11
w: Great|is the|Lord; to|His _ great _|pow'r at- test the|heav- ens, earth and|o- ceans.|The|star- * filled _|night,|_ the flam- ing|
w: All|bloom- ing|na- ture,|with _ its _|de- co- rat- ed|yield of fruits o'er-|flow- ing,|and|grain- * a- *|bun-|* dant mea- dows|
w: Great|is the|Lord; to|Him _ a- *|bove, * rap- tured|spir't shall speed, up-|spring- ing,|a-|mong _ Earth's *|pow'r-|* ful choirs shall|
 F2 A2 | B2 E2 | c2 F2 | d2 ^G2 | (A^G) A z | d4 | e2 c2 | f4 | d4 | e2 c2 | d4 |] %22
w: sun and|all its|re- la-|tives and|mo- * tions:|Great|is the|Lord,|great|is the|Lord!|
w: wide, are|songs His|might- y|pow'r forth-|show- * ing.|Great|is the|Lord,|great|is the|Lord!|
w: rise as|well my|praise in|joy- ful|sing- * ing.|Great|is the|Lord,|great|is the|Lord!|
V:2
 z2 F2 | F2 D2 | C2 D2 | E2 (DC) | DD DD | DE DD | D2 C2 | z2 C2 | (CE) (EA) | A4- | AE DE | %11
w: Great|is the|Lord; to|His great _|pow'r at- test the|heav- ens, earth and|o- ceans.|The|star- * filled _|night,|_ the flam- ing|
w: All|bloom- ing|na- ture,|with its _|de- co- rat- ed|yield of fruits o'er-|flow- ing,|and|grain- * a- *|bun-|* dant mea- dows|
w: Great|is the|Lord; to|Him a- *|bove, * rap- tured|spir't shall speed, up-|spring- ing,|a-|mong _ Earth's *|pow'r-|* ful choirs shall|
 D2 D2 | D2 E2 | E2 F2 | F2 E2 | E2 E z | A4 | G2 E2 | B4 | A4 | G2 G2 | F4 |] %22
w: sun and|all its|re- la-|tives and|mo- tions:|Great|is the|Lord,|great|is the|Lord!|
w: wide, are|songs His|might- y|pow'r forth-|show- ing.|Great|is the|Lord,|great|is the|Lord!|
w: rise as|well my|praise in|joy- ful|sing- ing.|Great|is the|Lord,|great|is the|Lord!|
V:3
 x4 | x4 | x4 | x4 | x4 | x4 | x4 | x4 | x4 | x4 | x4 | x4 | x4 | x4 | x4 | x4 | x4 | x4 | A4 | %19
 x4 | x4 | x4 |] %22
V:4
 z2 A2 | A2 A2 | A2 (AF) | E2 A2 | A=c BA | GG AB | A2 A2 | A4 | A2 (Ac) | c4- | cA AA | A2 A2 | %12
w: Great|is the|Lord; to _|His great|pow'r at- test the|heav- ens, earth and|o- ceans.|The|star- filled _|night,|_ the flam- ing|sun and|
w: All|bloom- ing|na- ture, _|with its|de- co- rat- ed|yield of fruits o'er-|flow- ing,|and|grain- a- *|bun-|* dant mea- dows|wide, are|
w: Great|is the|Lord; to _|Him a-|bove, * rap- tured|spir't shall speed, up-|spring- ing,|a-|mong Earth's *|pow'r-|* ful choirs shall|rise as|
 G2 B2 | A2 c2 | B2 d2 | (cB) c z | d4 | B2 A2 | d4 | d4 | B2 e2 | d4 |] %22
w: all its|re- la-|tives and|mo- * tions:|Great|is the|Lord,|great|is the|Lord!|
w: songs His|might- y|pow'r forth-|show- * ing.|Great|is the|Lord,|great|is the|Lord!|
w: well my|praise in|joy- ful|sing- * ing.|Great|is the|Lord,|great|is the|Lord!|
V:5
 x4 | x4 | x4 | x4 | x4 | x4 | x4 | x4 | x4 | x4 | x4 | x4 | x4 | x4 | x4 | x4 | x4 | x4 | A4 | %19
 x4 | x4 | x4 |] %22
V:6
 z2 D,2 | D,2 F,2 | (A,G,) (F,D,) | C,2 A,,2 | D,A, G,F, | G,E, F,^G, | A,2 A,,2 | z4 | z4 | %9
w: Great|is the|Lord; _ to _|His great|pow'r at- test the|heav- ens, earth and|o- ceans.|||
w: All|bloom- ing|na- * ture, _|with its|de- co- rat- ed|yield of fruits o'er-|flow- ing,|||
w: Great|is the|Lord; _ to _|Him a-|bove, * rap- tured|spir't shall speed, up-|spring- ing,|||
 z A,, C,E, | A,A,, B,,C, | D,2 F,2 | G,2 ^G,2 | A,2 ^A,2 | B,2 E,2 | A,2 A, z | F,4 | G,2 A,2 | %18
w: The star- filled|night, the flam- ing|sun and|all its|re- la-|tives and|mo- tions:|Great|is the|
w: and grain- a-|bun- dant mea- dows|wide, are|songs His|might- y|pow'r forth-|show- ing.|Great|is the|
w: a- mong Earth's|pow'r- ful choirs shall|rise as|well my|praise in|joy- ful|sing- ing.|Great|is the|
 B,4 | F,4 | G,2 A,2 | [D,A,]4 |] %22
w: Lord,|great|is the|Lord!|
w: Lord,|great|is the|Lord!|
w: Lord,|great|is the|Lord!|
V:7
 x4 | x4 | x4 | x4 | x4 | x4 | x4 | x4 | x4 | x4 | x4 | x4 | x4 | x4 | x4 | x4 | x4 | x4 | D,4 | %19
 x4 | x4 | x4 |] %22

